X: 116
T: Lord Loudon's March
%R: march, reel
B: Stewart "A Select Collection of Airs, Jigs, Marches and Reels", ca.1784, p.56 #116
F: http://imslp.org/wiki/A_Select_Collection_of_Airs,_Jigs,_Marches_and_Reels_%28Various%29
Z: 2017 John Chambers <jc:trillian.mit.edu>
M: C
L: 1/8
K: G
% - - - - - - - - - -
|:\
gfga g2b2 | a2gf g4 | d2cB e2d2 | Tc4 B4 |\
GABc d4 | defg a4 | a2gf bagf | Te4 d4 :|
|:\
agab a4 | b2b2 b4 | e2ab c'bag | Tf4 e4 |\
edcB c4 | dcBA B4 | gfed c'bag | Tf4 g4 :|

%%sep 1 1 500
%%sep 1 1 500

